dist/img/email-icon.svg

<svg width="24" height="24" viewBox="0 0 24 24" fill="none" xmlns="http://www.w3.org/2000/svg">
<path d="M4.92893 7.92893L4.3986 8.45926L4.92893 7.92893ZM3 6L3.53033 5.46967L3.51601 5.45535L3.50093 5.44182L3 6ZM21 6L21.5303 6.53033L21 6ZM19.0711 7.92894L19.6014 8.45927L19.0711 7.92894ZM4.06107 20.0451L4.50191 19.4383L4.06107 20.0451ZM2.95491 18.9389L3.56168 18.4981L2.95491 18.9389ZM21.0451 18.9389L20.4383 18.4981L21.0451 18.9389ZM19.9389 20.0451L19.4981 19.4383L19.9389 20.0451ZM19.9389 3.95491L19.4981 4.56168L19.9389 3.95491ZM21.0451 5.06107L20.4383 5.50191L21.0451 5.06107ZM4.06107 3.95491L4.50191 4.56168L4.06107 3.95491ZM2.95491 5.06107L2.34815 4.62023L2.95491 5.06107ZM2.60805 5.64824L1.92987 5.32797H1.92987L2.60805 5.64824ZM21.379 5.62103L22.0546 5.29546L21.379 5.62103ZM5.45926 7.3986L3.53033 5.46967L2.46967 6.53033L4.3986 8.45926L5.45926 7.3986ZM20.4697 5.46967L18.5407 7.3986L19.6014 8.45927L21.5303 6.53033L20.4697 5.46967ZM4.3986 8.45926C6.05028 10.1109 7.34126 11.4042 8.48288 12.2752C9.64181 13.1594 10.7345 13.6789 12 13.6789V12.1789C11.1944 12.1789 10.4183 11.8651 9.39275 11.0827C8.34994 10.287 7.14092 9.08026 5.45926 7.3986L4.3986 8.45926ZM18.5407 7.3986C16.8591 9.08026 15.6501 10.287 14.6072 11.0827C13.5817 11.8651 12.8056 12.1789 12 12.1789V13.6789C13.2655 13.6789 14.3582 13.1594 15.5171 12.2752C16.6587 11.4042 17.9497 10.1109 19.6014 8.45927L18.5407 7.3986ZM11 3.75H13V2.25H11V3.75ZM13 20.25H11V21.75H13V20.25ZM11 20.25C9.10843 20.25 7.74999 20.249 6.69804 20.135C5.66013 20.0225 5.00992 19.8074 4.50191 19.4383L3.62023 20.6518C4.42656 21.2377 5.37094 21.5 6.53648 21.6263C7.68798 21.751 9.14184 21.75 11 21.75V20.25ZM1.25 12C1.25 13.8582 1.24897 15.312 1.37373 16.4635C1.50001 17.6291 1.76232 18.5734 2.34815 19.3798L3.56168 18.4981C3.19259 17.9901 2.97745 17.3399 2.865 16.302C2.75103 15.25 2.75 13.8916 2.75 12H1.25ZM4.50191 19.4383C4.14111 19.1762 3.82382 18.8589 3.56168 18.4981L2.34815 19.3798C2.70281 19.8679 3.13209 20.2972 3.62023 20.6518L4.50191 19.4383ZM21.25 12C21.25 13.8916 21.249 15.25 21.135 16.302C21.0225 17.3399 20.8074 17.9901 20.4383 18.4981L21.6518 19.3798C22.2377 18.5734 22.5 17.6291 22.6263 16.4635C22.751 15.312 22.75 13.8582 22.75 12H21.25ZM13 21.75C14.8582 21.75 16.312 21.751 17.4635 21.6263C18.6291 21.5 19.5734 21.2377 20.3798 20.6518L19.4981 19.4383C18.9901 19.8074 18.3399 20.0225 17.302 20.135C16.25 20.249 14.8916 20.25 13 20.25V21.75ZM20.4383 18.4981C20.1762 18.8589 19.8589 19.1762 19.4981 19.4383L20.3798 20.6518C20.8679 20.2972 21.2972 19.8679 21.6518 19.3798L20.4383 18.4981ZM13 3.75C14.8916 3.75 16.25 3.75103 17.302 3.865C18.3399 3.97745 18.9901 4.19259 19.4981 4.56168L20.3798 3.34815C19.5734 2.76232 18.6291 2.50001 17.4635 2.37373C16.312 2.24897 14.8582 2.25 13 2.25V3.75ZM19.4981 4.56168C19.8589 4.82382 20.1762 5.14111 20.4383 5.50191L21.6518 4.62023C21.2972 4.13209 20.8679 3.70281 20.3798 3.34815L19.4981 4.56168ZM11 2.25C9.14184 2.25 7.68798 2.24897 6.53648 2.37373C5.37094 2.50001 4.42656 2.76232 3.62023 3.34815L4.50191 4.56168C5.00992 4.19259 5.66013 3.97745 6.69804 3.865C7.74999 3.75103 9.10843 3.75 11 3.75V2.25ZM3.62023 3.34815C3.13209 3.70281 2.70281 4.13209 2.34815 4.62023L3.56168 5.50191C3.82382 5.14111 4.14111 4.82382 4.50191 4.56168L3.62023 3.34815ZM2.75 12C2.75 10.3764 2.75047 9.14244 2.82395 8.15274C2.89731 7.16454 3.03996 6.48997 3.28622 5.96852L1.92987 5.32797C1.56808 6.09404 1.40671 6.98237 1.32806 8.04168C1.24953 9.09949 1.25 10.3976 1.25 12H2.75ZM3.28622 5.96852C3.36553 5.80058 3.45659 5.64656 3.56168 5.50191L2.34815 4.62023C2.18647 4.84277 2.04801 5.07781 1.92987 5.32797L3.28622 5.96852ZM3.50093 5.44182L3.10898 5.09006L2.10711 6.20642L2.49906 6.55818L3.50093 5.44182ZM22.75 12C22.75 10.3864 22.7505 9.08125 22.6702 8.01904C22.5899 6.95506 22.4248 6.06379 22.0546 5.29546L20.7033 5.9466C20.9541 6.46709 21.0996 7.14093 21.1745 8.13204C21.2495 9.12493 21.25 10.3648 21.25 12H22.75ZM22.0546 5.29546C21.9399 5.05734 21.8065 4.83304 21.6518 4.62023L20.4383 5.50191C20.5389 5.64031 20.6265 5.78722 20.7033 5.9466L22.0546 5.29546ZM21.5303 6.53033L21.9093 6.15136L20.8486 5.0907L20.4697 5.46967L21.5303 6.53033Z" fill="white" fill-opacity="0.8"/>
</svg>

<svg width="24" height="24" fill="none" xmlns="http://www.w3.org/2000/svg"><path d="m4.929 7.929-.53.53.53-.53ZM3 6l.53-.53-.014-.015-.015-.013L3 6Zm18 0 .53.53L21 6Zm-1.929 1.929.53.53-.53-.53ZM4.061 20.045l.44-.607-.44.607ZM2.955 18.94l.607-.44-.607.44Zm18.09 0-.607-.44.607.44Zm-1.106 1.106-.44-.607.44.607Zm0-16.09-.44.607.44-.607Zm1.106 1.106-.607.44.607-.44ZM4.061 3.955l.44.607-.44-.607ZM2.955 5.06l-.607-.44.607.44Zm-.347.587-.678-.32.678.32Zm18.771-.027.676-.326-.676.326ZM5.459 7.399 3.53 5.469 2.47 6.53l1.929 1.93 1.06-1.061Zm15.01-1.93L18.542 7.4l1.06 1.06 1.93-1.929-1.061-1.06ZM4.4 8.46c1.651 1.652 2.942 2.945 4.084 3.816 1.159.884 2.252 1.404 3.517 1.404v-1.5c-.806 0-1.582-.314-2.607-1.096C8.35 10.287 7.14 9.08 5.459 7.399L4.4 8.459ZM18.54 7.4c-1.682 1.681-2.89 2.888-3.934 3.684-1.025.782-1.801 1.096-2.607 1.096v1.5c1.265 0 2.358-.52 3.517-1.404 1.142-.87 2.433-2.164 4.084-3.816L18.54 7.4ZM11 3.75h2v-1.5h-2v1.5Zm2 16.5h-2v1.5h2v-1.5Zm-2 0c-1.892 0-3.25-.001-4.302-.115-1.038-.113-1.688-.328-2.196-.697l-.882 1.214c.807.586 1.75.848 2.916.974 1.152.125 2.606.124 4.464.124v-1.5ZM1.25 12c0 1.858-.001 3.312.124 4.463.126 1.166.388 2.11.974 2.917l1.214-.882c-.37-.508-.585-1.158-.697-2.196-.114-1.052-.115-2.41-.115-4.302h-1.5Zm3.252 7.438a4.25 4.25 0 0 1-.94-.94l-1.214.882a5.75 5.75 0 0 0 1.272 1.272l.882-1.214ZM21.25 12c0 1.892-.001 3.25-.115 4.302-.113 1.038-.328 1.688-.697 2.196l1.214.882c.586-.807.848-1.75.974-2.916.125-1.152.124-2.606.124-4.464h-1.5ZM13 21.75c1.858 0 3.312.001 4.463-.124 1.166-.126 2.11-.388 2.917-.974l-.882-1.214c-.508.37-1.158.585-2.196.697-1.052.114-2.41.115-4.302.115v1.5Zm7.438-3.252c-.262.36-.58.678-.94.94l.882 1.214a5.749 5.749 0 0 0 1.272-1.272l-1.214-.882ZM13 3.75c1.892 0 3.25.001 4.302.115 1.038.112 1.688.328 2.196.697l.882-1.214c-.807-.586-1.75-.848-2.916-.974-1.152-.125-2.606-.124-4.464-.124v1.5Zm6.498.812c.36.262.678.58.94.94l1.214-.882a5.75 5.75 0 0 0-1.272-1.272l-.882 1.214ZM11 2.25c-1.858 0-3.312-.001-4.464.124-1.165.126-2.11.388-2.916.974l.882 1.214c.508-.37 1.158-.585 2.196-.697C7.75 3.751 9.108 3.75 11 3.75v-1.5ZM3.62 3.348A5.75 5.75 0 0 0 2.348 4.62l1.214.882c.262-.36.58-.678.94-.94L3.62 3.348ZM2.75 12c0-1.624 0-2.858.074-3.847.073-.988.216-1.663.462-2.184L1.93 5.328c-.362.766-.523 1.654-.602 2.714C1.25 9.099 1.25 10.398 1.25 12h1.5Zm.536-6.031c.08-.168.17-.322.276-.467L2.348 4.62c-.162.223-.3.458-.418.708l1.356.64Zm.215-.527-.392-.352-1.002 1.116.392.352 1.002-1.116ZM22.75 12c0-1.614 0-2.919-.08-3.981-.08-1.064-.245-1.955-.615-2.724l-1.352.652c.251.52.397 1.194.471 2.185.076.993.076 2.233.076 3.868h1.5Zm-.695-6.705a4.364 4.364 0 0 0-.403-.675l-1.214.882c.1.138.189.285.265.445l1.352-.652ZM21.53 6.53l.38-.379-1.061-1.06-.38.379 1.061 1.06Z" fill="#fff" fill-opacity=".8"/></svg>
